assets/Owl/Flat/owl_flat.svg

<svg width="32" height="32" viewBox="0 0 32 32" fill="none" xmlns="http://www.w3.org/2000/svg">
<path d="M26.7135 2C26.7135 3.20408 26.2789 4.28571 25.5676 5.12245C26.4567 6.18367 27 7.56122 27 9.06122C27 10.5896 26.6931 11.7892 26.1398 12.7284C26.6938 14.0417 27 15.4851 27 17C27 21.248 24.592 24.9336 21.0665 26.7663L21.1875 28L15.9591 28.5308L10.8086 28L10.932 26.7655C7.40731 24.9326 5 21.2474 5 17C5 15.4544 5.31877 13.9832 5.89416 12.6487C5.3699 11.7216 5.08002 10.5467 5.08002 9.06122C5.08002 7.56122 5.62332 6.18367 6.51237 5.12245C5.80113 4.28571 5.36649 3.19388 5.36649 2H11.0149C12.0916 2 13.0024 2.35714 13.7828 3H18.2873C19.0677 2.35714 19.9208 2 20.9976 2H26.7135Z" fill="#6D4534"/>
<path d="M7.83934 14.5959C9.77941 15.741 12.574 16 15.6696 16H16.4104C19.4714 16 22.238 15.7467 24.1752 14.6341C24.4701 15.4925 24.63 16.4127 24.63 17.37C24.63 22.0638 20.77 28 16 28C11.23 28 7.37 22.0638 7.37 17.37C7.37 16.3991 7.53515 15.4657 7.83934 14.5959Z" fill="#FFDEA7"/>
<path d="M14.5448 13H17.5352C17.5352 12.1731 16.8717 11.5096 16.0448 11.5C15.2179 11.5 14.5448 12.1731 14.5448 13Z" fill="#FF822D"/>
<path d="M16 28C17.8301 28 19.5558 27.553 21.074 26.7624C21.5432 27.4987 21.8568 28.344 21.969 29.2514C22.0199 29.6625 21.6792 30 21.265 30H10.735C10.3208 30 9.98007 29.6625 10.0311 29.2515C10.1436 28.3445 10.458 27.4996 10.9281 26.7635C12.4458 27.5535 14.1707 28 16 28Z" fill="#FF822D"/>
<path d="M14 9C14 11.2091 12.2091 13 10 13C7.79086 13 6 11.2091 6 9C6 6.79086 7.79086 5 10 5C12.2091 5 14 6.79086 14 9Z" fill="#1C1C1C"/>
<path d="M26 9C26 11.2091 24.2091 13 22 13C19.7909 13 18 11.2091 18 9C18 6.79086 19.7909 5 22 5C24.2091 5 26 6.79086 26 9Z" fill="#1C1C1C"/>
<path d="M13.7481 9.51389C13.7481 11.3391 12.2685 12.8187 10.4433 12.8187C8.61809 12.8187 7.13849 11.3391 7.13849 9.51389C7.13849 7.68871 8.61809 6.20911 10.4433 6.20911C12.2685 6.20911 13.7481 7.68871 13.7481 9.51389Z" fill="#FCD53F"/>
<path d="M24.8413 9.51389C24.8413 11.3391 23.3617 12.8187 21.5365 12.8187C19.7114 12.8187 18.2318 11.3391 18.2318 9.51389C18.2318 7.68871 19.7114 6.20911 21.5365 6.20911C23.3617 6.20911 24.8413 7.68871 24.8413 9.51389Z" fill="#FCD53F"/>
<path d="M12.4785 9.5139C12.4785 10.6379 11.5673 11.5492 10.4433 11.5492C9.31924 11.5492 8.40802 10.6379 8.40802 9.5139C8.40802 8.38986 9.31924 7.47864 10.4433 7.47864C11.5673 7.47864 12.4785 8.38986 12.4785 9.5139Z" fill="#533566"/>
<path d="M23.5717 9.5139C23.5717 10.6379 22.6605 11.5492 21.5365 11.5492C20.4124 11.5492 19.5012 10.6379 19.5012 9.5139C19.5012 8.38986 20.4124 7.47864 21.5365 7.47864C22.6605 7.47864 23.5717 8.38986 23.5717 9.5139Z" fill="#533566"/>
</svg>

<svg xmlns="http://www.w3.org/2000/svg" width="32" height="32" fill="none"><path fill="#6D4534" d="M26.713 2a4.79 4.79 0 0 1-1.145 3.122A6.124 6.124 0 0 1 27 9.062c0 1.528-.307 2.727-.86 3.666.554 1.314.86 2.757.86 4.272a11 11 0 0 1-5.933 9.766l.12 1.234-5.228.53-5.15-.53.123-1.235A10.999 10.999 0 0 1 5 17c0-1.546.319-3.017.894-4.351-.524-.927-.814-2.102-.814-3.588 0-1.5.543-2.877 1.432-3.939A4.81 4.81 0 0 1 5.366 2h5.649c1.077 0 1.987.357 2.768 1h4.504c.78-.643 1.634-1 2.71-1h5.716Z"/><path fill="#FFDEA7" d="M7.84 14.596C9.78 15.74 12.573 16 15.67 16h.74c3.061 0 5.828-.253 7.765-1.366.295.858.455 1.779.455 2.736C24.63 22.064 20.77 28 16 28c-4.77 0-8.63-5.936-8.63-10.63 0-.97.165-1.904.47-2.774Z"/><path fill="#FF822D" d="M14.545 13h2.99a1.5 1.5 0 0 0-1.49-1.5c-.827 0-1.5.673-1.5 1.5ZM16 28c1.83 0 3.556-.447 5.074-1.238.47.737.783 1.582.895 2.49.05.41-.29.748-.704.748h-10.53c-.414 0-.755-.337-.704-.748a5.985 5.985 0 0 1 .897-2.488A10.953 10.953 0 0 0 16 28Z"/><path fill="#1C1C1C" d="M14 9a4 4 0 1 1-8 0 4 4 0 0 1 8 0ZM26 9a4 4 0 1 1-8 0 4 4 0 0 1 8 0Z"/><path fill="#FCD53F" d="M13.748 9.514a3.305 3.305 0 1 1-6.61 0 3.305 3.305 0 0 1 6.61 0ZM24.841 9.514a3.305 3.305 0 1 1-6.61 0 3.305 3.305 0 0 1 6.61 0Z"/><path fill="#533566" d="M12.479 9.514a2.035 2.035 0 1 1-4.071 0 2.035 2.035 0 0 1 4.07 0ZM23.572 9.514a2.035 2.035 0 1 1-4.07 0 2.035 2.035 0 0 1 4.07 0Z"/></svg>
